modules/feathericon/icons/gear.svg

<?xml version="1.0" encoding="UTF-8"?>
<svg width="24px" height="24px" viewBox="0 0 24 24" version="1.1" xmlns="http://www.w3.org/2000/svg" xmlns:xlink="http://www.w3.org/1999/xlink">
    <!-- Generator: sketchtool 52.2 (67145) - http://www.bohemiancoding.com/sketch -->
    <title>gear</title>
    <desc>Created with sketchtool.</desc>
    <g id="web-app" stroke="none" stroke-width="1" fill="none" fill-rule="evenodd">
        <g id="gear" fill="#000000" fill-rule="nonzero">
            <path d="M11,19.9381062 C9.53929151,19.7559585 8.20087908,19.1800111 7.09435615,18.3198574 L5.63603897,19.7781746 L4.22182541,18.363961 L5.68014258,16.9056439 C4.81998894,15.7991209 4.24404153,14.4607085 4.06189375,13 L2,13 L2,11 L4.06189375,11 C4.24404153,9.53929151 4.81998894,8.20087908 5.68014258,7.09435615 L4.22182541,5.63603897 L5.63603897,4.22182541 L7.09435615,5.68014258 C8.20087908,4.81998894 9.53929151,4.24404153 11,4.06189375 L11,2 L13,2 L13,4.06189375 C14.4607085,4.24404153 15.7991209,4.81998894 16.9056439,5.68014258 L18.363961,4.22182541 L19.7781746,5.63603897 L18.3198574,7.09435615 C19.1800111,8.20087908 19.7559585,9.53929151 19.9381062,11 L22,11 L22,13 L19.9381062,13 C19.7559585,14.4607085 19.1800111,15.7991209 18.3198574,16.9056439 L19.7781746,18.363961 L18.363961,19.7781746 L16.9056439,18.3198574 C15.7991209,19.1800111 14.4607085,19.7559585 13,19.9381062 L13,22 L11,22 L11,19.9381062 Z M12,17 C14.7614237,17 17,14.7614237 17,12 C17,9.23857625 14.7614237,7 12,7 C9.23857625,7 7,9.23857625 7,12 C7,14.7614237 9.23857625,17 12,17 Z" id="Combined-Shape"></path>
        </g>
    </g>
</svg>

<svg width="24" height="24" viewBox="0 0 24 24" xmlns="http://www.w3.org/2000/svg"><path d="M11 19.938a7.96 7.96 0 0 1-3.906-1.618l-1.458 1.458-1.414-1.414 1.458-1.458A7.96 7.96 0 0 1 4.062 13H2v-2h2.062A7.96 7.96 0 0 1 5.68 7.094L4.222 5.636l1.414-1.414L7.094 5.68A7.96 7.96 0 0 1 11 4.062V2h2v2.062a7.96 7.96 0 0 1 3.906 1.618l1.458-1.458 1.414 1.414-1.458 1.458A7.96 7.96 0 0 1 19.938 11H22v2h-2.062a7.96 7.96 0 0 1-1.618 3.906l1.458 1.458-1.414 1.414-1.458-1.458A7.96 7.96 0 0 1 13 19.938V22h-2v-2.062zM12 17a5 5 0 1 0 0-10 5 5 0 0 0 0 10z" fill="#000" fill-rule="nonzero"/></svg>
